!!!CDT:
!!!PTL: Il secondo libro de madrigali a quattro voci
!!!PPP: Venice
!!!PPR: Angelo Gardano
!!!PDT: 1586
!!!PUB-format:
!!!RISM: D 3655
!!!rime: 1688
!!!AGN: Madrigal
!!!SCT: Trm1688c
!!!SCA: Trm1688c
!!!original-voices: 4
!!!extant-voices: 4
!!!complete: Y
!!!final: (C)(G)C
!!!COM: Dueto, Antonio
!!!OTL: Padre del cielo, or ch'atra nube il calle
**kern	**text	**kern	**text	**kern	**text	**kern	**text
*part4	*part4	*part3	*part3	*part2	*part2	*part1	*part1
*staff4	*staff4	*staff3	*staff3	*staff2	*staff2	*staff1	*staff1
*I"Basso	*	*I"Tenore	*	*I"Alto	*	*I"Canto	*
*I'B	*	*I'T	*	*I'A	*	*I'C	*
*oclefC4	*	*oclefC3	*	*oclefC2	*	*oclefG2	*
*clefGv2	*	*clefGv2	*	*clefG2	*	*clefG2	*
*k[]	*	*k[]	*	*k[]	*	*k[]	*
*omet(C)	*	*omet(C)	*	*omet(C)	*	*omet(C)	*
*M4/4	*	*M4/4	*	*M4/4	*	*M4/4	*
*met(c)	*	*met(c)	*	*met(c)	*	*met(c)	*
!!LO:TX:a:t=[Prima parte.]
0r	.	1c	Pa-	1r	.	0r	.
.	.	2d	-dre	1f	Pa-	.	.
.	.	2d	del	.	.	.	.
=1	=1	=1	=1	=1	=1	=1	=1
0r	.	4.e	cie-	2g	-dre	1r	.
.	.	8d	.	.	.	.	.
.	.	8eL	.	2g	del	.	.
.	.	8fJ	.	.	.	.	.
.	.	8gL	.	.	.	.	.
.	.	8eJ	.	.	.	.	.
.	.	4.f	.	4.a	cie-	1cc	Pa-
.	.	8e	.	8g	.	.	.
.	.	8fL	.	8aL	.	.	.
.	.	8gJ	.	8bJ	.	.	.
.	.	4a	.	[4cc	.	.	.
=2	=2	=2	=2	=2	=2	=2	=2
1r	.	0g	-lo,	4cc]	.	2dd	-dre
.	.	.	.	8bL	.	.	.
.	.	.	.	8aJ	.	.	.
.	.	.	.	2b	.	2dd	del
1c	Pa-	.	.	2.cc	.	4.ee	cie-
.	.	.	.	.	.	8dd	.
.	.	.	.	.	.	8eeL	.
.	.	.	.	.	.	8ffJ	.
.	.	.	.	4b	.	[4gg	.
=3	=3	=3	=3	=3	=3	=3	=3
2d	-dre	1r	.	1a	.	4gg]	.
.	.	.	.	.	.	8ff#iL	.
.	.	.	.	.	.	8eeJ	.
2d	del	.	.	.	.	2ff#i	.
4.e	cie-	1c	<Pa-	1g	-lo,	4.gg	.
8d	.	.	.	.	.	8ffnXi	.
8eL	.	.	.	.	.	8eeL	.
8fJ	.	.	.	.	.	8ddJ	.
[4g	.	.	.	.	.	8ccL	.
.	.	.	.	.	.	8bJ	.
=4	=4	=4	=4	=4	=4	=4	=4
4g]	.	2d	-dre	2r	.	1a	.
8f#iL	.	.	.	.	.	.	.
8eJ	.	.	.	.	.	.	.
2f#i	.	2d	del	2.dd	del	.	.
2.g	-lo	4.e	cie-	.	.	2g	-lo,
.	.	.	.	2cc	cie-	.	.
.	.	8d	.	.	.	.	.
.	.	8eL	.	.	.	4r	.
.	.	8fJ	.	.	.	.	.
4G	del	[4g	.	4b	.	4dd	del
=5	=5	=5	=5	=5	=5	=5	=5
1d	cie-	4g]	.	1a	.	1dd	cie-
.	.	8f#iL	.	.	.	.	.
.	.	8eJ	.	.	.	.	.
.	.	2f#i	.	.	.	.	.
2G	-lo,	2g	-lo,>	2b	-lo,	2dd	-lo,
4r	.	4r	.	4r	.	4r	.
4c	hor	4g	hor	4cc	hor	4ee	hor
=6	=6	=6	=6	=6	=6	=6	=6
4A	ch'a-	4a	ch'a-	4cc	ch'a-	4ee	ch'a-
4F	-tra	4a	-tra	4cc	-tra	4ff	-tra
2G	nu-	2g	nu-	2b	nu-	2dd	nu-
4A	-be il	4e	-be il	4a	-be il	4cc	-be il
2A	cal-	2e	cal-	2a	cal-	2cc	cal-
4E	-le	4e	-le	4g	-le	4b	-le
=7	=7	=7	=7	=7	=7	=7	=7
2F	De-	2c	De-	2f	De-	2a	De-
4F	-stro	4c	-stro	4f	-stro	4a	-stro
4E	m'a-	4c	m'a-	2c	m'a-	4g	m'a-
2D	-scon-	2d	-scon-	.	.	2.f	-scon-
.	.	.	.	4B	-scon-	.	.
2C	-de,	4G	-de,	2c	-de,	.	.
.	.	4g	e	.	.	8eL	.
.	.	.	.	.	.	8dJ	.
=8	=8	=8	=8	=8	=8	=8	=8
2c	e	4g	vie	0r	.	4e	.
.	.	4f	fal-	.	.	4a	.
4c	vie	4e	-la-	.	.	2g	-de,
4B-X	fal-	4d	-ci	.	.	.	.
4A	-la-	4f	stam-	.	.	1r	.
4G	-ci	2e	.	.	.	.	.
2F	stam-	.	.	.	.	.	.
.	.	4d	.	.	.	.	.
=9	=9	=9	=9	=9	=9	=9	=9
4E	-po,	2e	-po,	2g	e	2r	.
4c	fal-	.	.	.	.	.	.
2A	-la-	2r	.	4g	vie	2cc	e
.	.	.	.	4f	fal-	.	.
2G	-ci	1r	.	4e	-la-	4cc	vie
.	.	.	.	4d	-ci	4b-X	fal-
4F	stam-	.	.	4f	stam-	4a	-la-
4C	-po,	.	.	[4e	.	4g	-ci
=10	=10	=10	=10	=10	=10	=10	=10
2r	.	2r	.	4e]	.	2f	stam-
.	.	.	.	4d	.	.	.
2C	e	2g	<De-	2e	-po,	4e	-po,
.	.	.	.	.	.	4ee	e
4C	vie	4g	-stro	2r	.	4ee	vie
4D	fal-	4f	m'a-	.	.	4ff	fal-
4.E	-la-	2e	-scon-	2cc	<e	4gg	-la-
.	.	.	.	.	.	4gg	-ci,
8F	.	.	.	.	.	.	.
=11	=11	=11	=11	=11	=11	=11	=11
4G	.	2d	-de,>	4cc	vie	4r	.
4G	-ci	.	.	4b-X	fal-	4gg	e
2A	stam-	2c	e	2a	-la-	4gg	vie
.	.	.	.	.	.	4ff	fal-
2E	-po	4B	vie	2g	-ci	2.ee	-la-
.	.	4c	fal-	.	.	.	.
2r	.	4A	-la-	4c	stam-	.	.
.	.	4B-X	-ci	[4g	.	4dd	-ci
=12	=12	=12	=12	=12	=12	=12	=12
2r	.	1A	stam-	4g]	.	1cc	stam-
.	.	.	.	8f#iL	.	.	.
.	.	.	.	8eJ	.	.	.
2c	Con	.	.	2f#i	.	.	.
4.d	va-	4G	-po	2g	-po>	2b	-po
.	.	4G	Con	.	.	.	.
8c	.	.	.	.	.	.	.
4B	.	4.g	va-	2r	.	4r	.
4B	-go	.	.	.	.	4dd	Con
.	.	8f	.	.	.	.	.
=13	=13	=13	=13	=13	=13	=13	=13
2c	piè,	4e	.	2g	Con	4.ee	va-
.	.	4e	-go	.	.	.	.
.	.	.	.	.	.	8dd	.
2A	<Con	2.f	piè,	4.a	va-	4cc	.
.	.	.	.	.	.	4cc	-go
.	.	.	.	8g	.	.	.
4.B-X	va-	.	.	4fnXi	.	2dd	piè,
.	.	4d	<Con	4f	-go	.	.
8A	.	.	.	.	.	.	.
4G	.	4.e	va-	2g	piè,	2b	<Con
4G	-go	.	.	.	.	.	.
.	.	8d	.	.	.	.	.
=14	=14	=14	=14	=14	=14	=14	=14
2A	piè>	4c	.	2e	<Con	4.cc	va-
.	.	4c	-go	.	.	.	.
.	.	.	.	.	.	8b	.
4r	.	2d	piè>	4.f	va-	4a	.
4D	per	.	.	.	.	4a	-go
.	.	.	.	8e	.	.	.
4G	que-	4r	.	4d	.	2b	piè>
4G	-st'in-	4d	per	4d	-go	.	.
4E	-sta-	4g	que-	2e	piè>	4r	.
4E	-bil	4g	-st'in-	.	.	4g	per
=15	=15	=15	=15	=15	=15	=15	=15
4.A	cam-	4e	-sta-	4r	.	4cc	que-
.	.	4e	-bil	4c	per	4cc	-st'in-
8G	.	.	.	.	.	.	.
8FL	.	4f	cam-	4f	que-	4a	-sta-
8EJ	.	.	.	.	.	.	.
4F	.	4c	-po,	4f	-st'in	4a	-bil
2G	-po,	4r	.	4d	sta-	4.b	cam-
.	.	4G	<per	4d	-bil	.	.
.	.	.	.	.	.	8a	.
4r	.	4c	que-	4.e	cam-	8gL	.
.	.	.	.	.	.	8fJ	.
4C	<per	4c	-st'in-	.	.	4g	.
.	.	.	.	8d	.	.	.
=16	=16	=16	=16	=16	=16	=16	=16
4F	que-	2A	-sta-	8cL	.	4a	-po,
.	.	.	.	8BJ	.	.	.
4F	-st'in-	.	.	4c	.	4cc	<per
4D	-sta-	4A	-bil	2d	-po,	4ff	que-
4D	-bil	4.d	cam-	.	.	4ff	-st'in-
4.G	cam-	.	.	4r	.	4dd	-sta-
.	.	8c	.	.	.	.	.
.	.	8BL	.	4g	<per	4dd	-bil
8F	.	8AJ	.	.	.	.	.
8EL	.	2G	.	4cc	que-	2ee	cam-
8DJ	.	.	.	.	.	.	.
4C	.	.	.	4cc	-st'in-	.	.
=17	=17	=17	=17	=17	=17	=17	=17
1D	-po>	1d	-po>	4a	-sta	4ff#X	.
.	.	.	.	4b	bil	2gg	.
.	.	.	.	2a	cam-	.	.
.	.	.	.	.	.	4ff#i	.
1G	De	2.d	De	2b	-po>	1gg	-po>
.	.	.	.	2b	De	.	.
.	.	[4e	la	.	.	.	.
=18	=18	=18	=18	=18	=18	=18	=18
2A	la	4e]	.	2cc	la	2r	.
.	.	4c	mon-	.	.	.	.
4F#X	mon-	2d	-da-	4a	mon-	4r	.
2G	-da-	.	.	2b	-da-	4dd	De
.	.	4B	-na e	.	.	2ee	la
4E	-na e	2c	pa-	4g	-na e	.	.
2FnXi	pa-	.	.	2a	pa-	4cc	mon-
.	.	4A	-lu-	.	.	[4dd	-da-
=19	=19	=19	=19	=19	=19	=19	=19
4D	-lu-	4B	-do-	4f#X	-lu-	4dd]	.
2E	-do-	2G	-sa	2g	-do-	4b	-na e
.	.	.	.	.	.	4cc	pa-
4C	-sa	2c	val-	4e	-sa	4cc	-lu-
1D	val-	.	.	8fnXiL	val-	4a	-do-
.	.	.	.	8eJ	.	.	.
.	.	4B	.	8dL	.	2g	-sa
.	.	.	.	8cJ	.	.	.
.	.	2A	.	2d	.	.	.
.	.	.	.	.	.	4f#X	val-
=20	=20	=20	=20	=20	=20	=20	=20
4G	-le,	2G	-le,	2d	-le,	4g	-le,
4G	<De	.	.	.	.	4dd	<De
2c	la	2r	.	4r	.	2ee	la
.	.	.	.	4g	<De	.	.
4A	mon-	4r	.	4a	la	4cc	mon-
2B-X	-da-	2d	<De	4f	mon-	2dd	-da-
.	.	.	.	[2g	-da-	.	.
4G	-na e	[4e	la	.	.	4b	-na e
=21	=21	=21	=21	=21	=21	=21	=21
2A	pa-	4e]	.	4g]	.	2cc	pa-
.	.	4c	mon-	4e	-na e	.	.
4F	-lu-	2d	-da-	2f	pa-	4a	-lu-
2G	-do-	.	.	.	.	2b	-do-
.	.	4B	-na e	4d	-lu-	.	.
4E	-sa	2c	pa-	4e	-do-	4g	-sa
4.F	.	.	.	2c	-sa	[2a	val-
.	.	4f	-lu-	.	.	.	.
8G	.	.	.	.	.	.	.
=22	=22	=22	=22	=22	=22	=22	=22
*lig	*	*	*	*lig	*	*	*
1A	val-	4e	-do-	1c	val-	4a]	.
.	.	4d	-sa	.	.	8gL	.
.	.	.	.	.	.	8fJ	.
.	.	2.c	val-	.	.	4e	.
.	.	.	.	.	.	4f	.
1G	.	.	.	1d	.	1g	.
*Xlig	*	*	*	*Xlig	*	*	*
.	.	8BL	.	.	.	.	.
.	.	8AJ	.	.	.	.	.
.	.	2B	.	.	.	.	.
=23	=23	=23	=23	=23	=23	=23	=23
0Cl	-le.>	0cl	-le.>	0el	-le.>	0gl	-le.>
=24||	=24||	=24||	=24||	=24||	=24||	=24||	=24||
!!LO:TX:a:t=Seconda parte.
1c	Reg-	1e	Reg-	1g	Reg-	1cc	Reg-
2G	-ga	2d	-ga	2g	-ga	2b	-ga
2A	tua	2c	tua	2e	tua	2a	tua
=25	=25	=25	=25	=25	=25	=25	=25
2F	san-	1f	san-	1a	san-	1.cc	san-
2F	-ta	.	.	.	.	.	.
4.c	man,	2e	-ta	1g	-ta	.	.
8d	.	.	.	.	.	.	.
2e	.	[2g	man,	.	.	2b	-ta
=26	=26	=26	=26	=26	=26	=26	=26
1d	sì	4g]	.	1a	man,	1dd	man,
.	.	8f#iL	.	.	.	.	.
.	.	8eJ	.	.	.	.	.
.	.	2f#i	.	.	.	.	.
1G	ch'ei	4g	sì	1b	sì	2dd	sì
.	.	2g	ch'ei	.	.	.	.
.	.	.	.	.	.	[2dd	ch'ei
.	.	4d	non	.	.	.	.
=27	=27	=27	=27	=27	=27	=27	=27
2D	non	2fnXi	fal-	2r	.	2dd]	.
4.F	fal-	4c	-le	4r	.	2a	non
.	.	4f	Mio	2a	ch'ei	.	.
8G	.	.	.	.	.	.	.
1A	.	4e	cor-	.	.	1cc	fal-
.	.	4e	-s'er-	4e	non	.	.
.	.	2c	-ran-	2f#X	fal-	.	.
=28	=28	=28	=28	=28	=28	=28	=28
2G	-le,	4d	-te,	2g	-le,	2b	-le,
.	.	4d	Mio	.	.	.	.
2G	Mio	4.g	cor-	4d	Mio	2b	Mio
.	.	.	.	4.g	cor-	.	.
.	.	8f	.	.	.	.	.
1c	cor-	8eL	.	.	.	1ee	cor-
.	.	8dJ	.	8fnXi	.	.	.
.	.	8cL	.	8eL	.	.	.
.	.	8dJ	.	8dJ	.	.	.
.	.	8eL	.	8cL	.	.	.
.	.	8fJ	.	8dJ	.	.	.
.	.	4g	.	8eL	.	.	.
.	.	.	.	8fJ	.	.	.
=29	=29	=29	=29	=29	=29	=29	=29
2B	-s'er-	4d	-so,	4g	.	2dd	-s'er-
.	.	4d	Mio	4g	-s'er-	.	.
2.c	-ran-	8gL	cor-	4e	-ran-	2.ee	-ran-
.	.	8fJ	.	.	.	.	.
.	.	8eL	.	4c	-te,	.	.
.	.	8dJ	.	.	.	.	.
.	.	4c	.	1r	.	.	.
4B	.	4d	-s'er-	.	.	4dd	.
4A	.	2e	-ran-	.	.	4cc	.
4G	.	.	.	.	.	4b	.
=30	=30	=30	=30	=30	=30	=30	=30
2.F	.	2f	-te,	2c	Mio	4a	.
.	.	.	.	.	.	4g	.
.	.	2c	<Mio	8AL	cor-	2.a	.
.	.	.	.	8BJ	.	.	.
8EL	.	.	.	8cL	.	.	.
8DJ	.	.	.	8dJ	.	.	.
1C	.	2c	cor-	2e	.	.	.
.	.	.	.	.	.	4g	.
.	.	2c	-s'er-	2e	-s'er-	[2g	.
=31	=31	=31	=31	=31	=31	=31	=31
1D	.	1A	-ran-	1d	-ran-	4g]	.
.	.	.	.	.	.	8f#iL	.
.	.	.	.	.	.	8eJ	.
.	.	.	.	.	.	2f#i	.
2G	-te,	2G	-te,>	2d	-te,	2g	-te,
4r	.	4r	.	4r	.	4r	.
4G	e	4g	e	4b	e	4dd	e
=32	=32	=32	=32	=32	=32	=32	=32
2c	di	2g	di	2cc	di	2ee	di
2c	tua	4g	tua	2cc	tua	2ee	tua
.	.	4.a	gra-	.	.	.	.
1d	gra-	.	.	1a	gra-	1ff	gra-
.	.	8g	.	.	.	.	.
.	.	8fL	.	.	.	.	.
.	.	8eJ	.	.	.	.	.
.	.	2f	.	.	.	.	.
=33	=33	=33	=33	=33	=33	=33	=33
4c	-tia il	4g	-tia il	4cc	-tia il	4ee	-tia il
2c	lam-	2g	lam-	2cc	lam-	2ee	lam-
4G	-po	4g	-po	4b	-po	4dd	-po
2A	Dol-	2e	Dol-	1a	Dol-	2cc#X	Dol-
4A	-ce	4e	-ce	.	.	4cc#i	-ce
[4d	so-	[4f	so-	.	.	[4dd	so-
=34	=34	=34	=34	=34	=34	=34	=34
4d]	.	4f]	.	2a	-ce	4dd]	.
4d	-vra	4f	-vra	.	.	4dd	-vra
2G	me	4d	me	2g	so-	2b	me
.	.	4.e	splen-	.	.	.	.
4.A	splen-	.	.	4e	-vra	1ccnXi	splen-
.	.	8c	.	.	.	.	.
.	.	2f	.	4a	me	.	.
8B	.	.	.	.	.	.	.
2c	.	.	.	2g	splen-	.	.
.	.	4e	.	.	.	.	.
=35	=35	=35	=35	=35	=35	=35	=35
4F	-da;	4f	-da;	4a	-da;	2cc	-da;
4f	e	4a	e	4cc	e	.	.
4f	del	4a	del	2cc	del	2r	.
4e	mio	4g	mio	.	.	.	.
2d	scam-	4f	scam-	4b	mio	4r	.
.	.	4d	-po,	2a	scam-	4ff	e
4c	-po,	2r	.	.	.	4ff	del
4c	e	.	.	8gL	.	4ee	mio
.	.	.	.	8fJ	.	.	.
=36	=36	=36	=36	=36	=36	=36	=36
4c	del	4r	.	2g	.	2dd	scam-
4B	mio	4g	e	.	.	.	.
2A	scam-	4g	del	2c	-po,	4cc	-po,
.	.	4f	mio	.	.	4cc	<e
2G	-po,	4e	scam-	4r	.	4cc	del
.	.	8dL	.	4g	e	4b	mio
.	.	8cJ	.	.	.	.	.
2r	.	2d	.	4g	del	4.a	scam-
.	.	.	.	4f	mio	.	.
.	.	.	.	.	.	8b	.
=37	=37	=37	=37	=37	=37	=37	=37
2g	<e	2g	-po,	2e	scam-	8ccL	.
.	.	.	.	.	.	8bJ	.
.	.	.	.	.	.	8bL	.
.	.	.	.	.	.	16a	.
.	.	.	.	.	.	16gJ	.
4g	del	2r	.	4d	-po,	2a	.
4f	mio	.	.	4dd	<e	.	.
2e	scam-	1r	.	4dd	del	4g	-po,>
.	.	.	.	4cc	mio	4gg	e
2d	-po,>	.	.	4b	scam-	4gg	del
.	.	.	.	4a	-po,>	4ff	mio
=38	=38	=38	=38	=38	=38	=38	=38
2c	e	2g	<e	4r	.	2ee	scam-
.	.	.	.	4cc	<e	.	.
4G	del	2.g	del	4cc	del	2dd	-po,
4G	mio	.	.	4b	mio	.	.
2d	scam-	.	.	1a	scam-	2r	.
.	.	4f	mio	.	.	.	.
4A	-po,	4.e	scam-	.	.	2cc	<e
4A	<e	.	.	.	.	.	.
.	.	8d	.	.	.	.	.
=39	=39	=39	=39	=39	=39	=39	=39
4c	del	8eL	.	2g	-po>	4cc	del
.	.	8f#iJ	.	.	.	.	.
4G	mio	2g	.	.	.	4b	mio
2d	scam-	.	.	2r	.	2a	scam-
.	.	4f#i	.	.	.	.	.
4G	-po>	4g	-po>	4r	.	4g	-po>
4.F	Quel	4.c	Quel	4.f	Quel	4.a	Quel
8F	sen-	8c	sen-	8f	sen-	8a	sen-
4C	-tier	4c	-tier	4e	-tier	[4g	-tier
=40	=40	=40	=40	=40	=40	=40	=40
2D	mo-	2A	mo-	2d	mo-	4g]	.
.	.	.	.	.	.	4f#i	mo-
2G	-stri	2B	-stri	2d	-stri	2g	-stri
4r	.	4r	.	4r	.	4r	.
4G	a	4g	a	4d	a	4b	a
2G	cui	2g	cui	4e	cui	2b	cui
.	.	.	.	4d	vol-	.	.
=41	=41	=41	=41	=41	=41	=41	=41
2A	vol-	4f	vol-	8cL	-s'io	2.cc	vol-
.	.	.	.	8dJ	.	.	.
.	.	2e	-s'io	8eL	.	.	.
.	.	.	.	8fJ	.	.	.
2.G	-s'io	.	.	2g	.	.	.
.	.	2d	le	.	.	2b	-s'io
.	.	.	.	2g	le	.	.
4E	le	2c	spal-	.	.	4cc	le
2D	spal-	.	.	2f	spal-	2dd	spal-
.	.	4B	.	.	.	.	.
=42	=42	=42	=42	=42	=42	=42	=42
2C	-le,	4c	-le,	1e	-le,	2g	-le,
.	.	4g	<a	.	.	.	.
4r	.	2.g	cui	.	.	4r	.
4c	<a	.	.	.	.	4ee	<a
2c	cui	.	.	4r	.	2ee	cui
.	.	4a	vol-	4cc	a	.	.
2d	vol-	4a	-s'io	4a	cui	2ff	vol-
.	.	4f	le	4b	vol-	.	.
=43	=43	=43	=43	=43	=43	=43	=43
*	*	*lig	*	*	*	*	*
2.c	-s'io	1g	spal-	2cc	-s'io	2.ee	-s'io
.	.	.	.	4cc	le	.	.
4B	le	.	.	2g	spal-	4dd	le
1A	spal-	1a	.	.	.	1cc	spal-
*	*	*Xlig	*	*	*	*	*
.	.	.	.	8f#iL	.	.	.
.	.	.	.	8eJ	.	.	.
.	.	.	.	2f#i	.	.	.
=44	=44	=44	=44	=44	=44	=44	=44
0G	-le.>	0d	-le.>	0g	-le.	0b	-le.>
=45||	=45||	=45||	=45||	=45||	=45||	=45||	=45||
!!LO:TX:a:t=Terza parte.
1G	Deh,	1g	Deh,	1b	Deh,	1dd	Deh,
4c	pria	4g	pia	4cc	pria	4ee	pria
4A	che'l	4a	che'l	4cc	che'l	4ee	che'l
2d	ver-	2f	ver-	2a	ver-	2ff	ver-
=46	=46	=46	=46	=46	=46	=46	=46
4c	-no	4g	-no	4cc	-no	4ee	-no
2c	que-	2g	que-	2cc	que-	2ee	que-
4G	-ste	4g	-ste	4b	-ste	4dd	-ste
4.A	chio-	2e	chio-	2a	chio-	2.cc	chio-
8B	.	.	.	.	.	.	.
4c	.	4e	-me a-	2g	-me a-	.	.
4G	-me a-	[4d	-sper-	.	.	4b	-me a-
=47	=47	=47	=47	=47	=47	=47	=47
1A	-sper-	4d]	.	1e	-sper-	1a	-sper-
.	.	8c#iL	.	.	.	.	.
.	.	8BJ	.	.	.	.	.
.	.	2c#i	.	.	.	.	.
2D	-ga	2d	-ga	2f	-ga	2a	-ga
2D	Di	2A	Di	2d	Di	2f#X	Di
=48	=48	=48	=48	=48	=48	=48	=48
2G	bian-	2B	bian-	2d	bian-	2g	bian-
2G	-ca	2B	-ca	2e	-ca	2g	-ca
1F	ne-	1cnXi	ne-	1f	ne-	1a	ne-
=49	=49	=49	=49	=49	=49	=49	=49
0C	-ve,	1c	-ve,	1.e	-ve,	2g	-ve,
.	.	.	.	.	.	4r	.
.	.	.	.	.	.	4cc	e'l
.	.	4r	.	.	.	4.cc	mio
.	.	4c	e'l	.	.	.	.
.	.	.	.	.	.	8dd	na-
.	.	4.c	mio	4r	.	4.ee	-scen-
.	.	.	.	4g	e'l	.	.
.	.	8d	na-	.	.	8ff	-te
=50	=50	=50	=50	=50	=50	=50	=50
2r	.	4.e	-scen-	4.g	mio	2gg	gior-
.	.	8f	-te	8a	na-	.	.
2G	e'l	2g	gior-	4.b	-scen-	2dd	-no,
.	.	.	.	8cc	-te	.	.
4.G	mio	4d	-no,	2dd	gior-	1r	.
.	.	4d	<e'l	.	.	.	.
8A	na-	.	.	.	.	.	.
4.B	-scen-	4.d	mio	2g	-no,	.	.
8c	-te	8e	na-	.	.	.	.
=51	=51	=51	=51	=51	=51	=51	=51
2d	gior-	4.f	-scen-	1r	.	2a	<e'l
.	.	8g	-te	.	.	.	.
4A	-no,	1a	gior-	.	.	4.a	mio
4A	<e'l	.	.	.	.	.	.
.	.	.	.	.	.	8b	na-
4.A	mio	.	.	2e	<e'l	4.cc	-scen-
8B	na-	.	.	.	.	8dd	-te
4.c	-scen-	2g	-no>	4.e	mio	[2ee	gior-
8d	-te	.	.	8f	na-	.	.
=52	=52	=52	=52	=52	=52	=52	=52
1e	gior-	0r	.	4g#X	-scen-	4ee]	.
.	.	.	.	2a	-te	8ddL	.
.	.	.	.	.	.	8ccJ	.
.	.	.	.	.	.	2b	.
.	.	.	.	4g#X	gior-	.	.
1A	-no>	.	.	1a	-no>	1cc	-no>
=53	=53	=53	=53	=53	=53	=53	=53
*col	*	*col	*	*col	*	*col	*
3%2d	Chiu-	3%2f	Chiu-	3%2a	Chiu-	3%2dd	Chiu-
3G	-d'in	3d	-d'in	3gnXi	-d'in	3b	-d'in
3.c	te-	3.e	te-	3.g	te-	3.cc	te-
6c	-ne-	6e	-ne-	6g	-ne-	6cc	-ne-
3c	-bre e-	3e	-bre e-	3g	-bre e-	3cc	-bre e-
=54	=54	=54	=54	=54	=54	=54	=54
3%2F	-ter-	3%2f	-ter-	3%2a	-ter-	3%2cc	-ter-
3G	-ne il	3d	-ne il	3g	-ne il	3b	-ne il
3%2A	fos-	3%2c	fos-	3%2e	fos-	3%2a	fos-
3F	-co	3c	-co	3f	-co	3a	-co
=55	=55	=55	=55	=55	=55	=55	=55
3%2G	lu-	3%2B	lu-	3%2d	lu-	3%2g	lu-
3C	-me,	3c	-me,	3e	-me,	3g	-me,
*Xcol	*	*Xcol	*	*Xcol	*	*Xcol	*
2r	.	2r	.	2r	.	1cc	Dam-
2F	Dam-	2f	Dam-	2a	Dam-	.	.
=56	=56	=56	=56	=56	=56	=56	=56
2G	-mi	2d	-mi	2g	-mi	2b	-mi
2A	ch'io	2c	ch'io	2e	ch'io	2a	ch'io
2F	fac-	2f	fac-	2a	fac-	2cc	fac-
2F	-cia a	2a	-cia a	2cc	-cia a	[2ff	-cia a
=57	=57	=57	=57	=57	=57	=57	=57
1c	tua	2g	tua	2cc	tua	2ff]	.
.	.	2g	ma-	2cc	ma-	2ee	tua
2d	ma-	2f	-gion	2a	-gion	2dd	ma-
4e	-gion	4e	ri-	2g	ri-	4b	-gio
4e	ri-	[4g	-tor-	.	.	4cc#X	ri-
=58	=58	=58	=58	=58	=58	=58	=58
1d	-tor-	4g]	.	1a	-tor-	1dd	-tor-
.	.	8f#iL	.	.	.	.	.
.	.	8eJ	.	.	.	.	.
.	.	2f#i	.	.	.	.	.
1G	-no,	4g	-no,	4b	-no,	2dd	-no,
.	.	4g	Co-	4b	Co-	.	.
.	.	4g	-me	4b	-me	2dd	Co-
.	.	4g	su-	4b	su-	.	.
=59	=59	=59	=59	=59	=59	=59	=59
2r	.	4fnXi	-bli-	4a	-bli-	4dd	-me
.	.	4f	-me au-	4a	-me au-	4dd	su-
2g	Co-	8eL	-gel	2g	-gel	4cc	-bli-
.	.	8dJ	.	.	.	.	.
.	.	8eL	.	.	.	4cc	-me au-
.	.	8fJ	.	.	.	.	.
4g	-me	4g	.	4r	.	8bL	-gel,
.	.	.	.	.	.	8aJ	.
4g	su-	4G	che	4g	che	8bL	.
.	.	.	.	.	.	8ccJ	.
4f	-bli-	4d	spie-	8aL	spie-	2dd	.
.	.	.	.	8gJ	.	.	.
4f	-me au-	4d	-gh'ed	8aL	.	.	.
.	.	.	.	8bJ	.	.	.
=60	=60	=60	=60	=60	=60	=60	=60
8eL	-gel	4.c	er-	2cc	.	2gg	<Co-
8dJ	.	.	.	.	.	.	.
8eL	.	.	.	.	.	.	.
8fJ	.	8d	.	.	.	.	.
4g	.	8eL	.	2b	-gh'ed	4gg	-me
.	.	8fJ	.	.	.	.	.
4G	che	8gL	.	.	.	4gg	su-
.	.	8eJ	.	.	.	.	.
4d	spie-	2f	.	2a	er-	4ff	-bli-
4d	-gh'ed	.	.	.	.	4ff	-me au-
4.c	er-	2g	-ga	4cc	-ga,	8eeL	-gel>
.	.	.	.	.	.	8ddJ	.
.	.	.	.	4cc	Co-	8eeL	.
8d	.	.	.	.	.	8ffJ	.
=61	=61	=61	=61	=61	=61	=61	=61
8eL	.	1r	.	4cc	-me	2gg	.
8dJ	.	.	.	.	.	.	.
8cL	.	.	.	4cc	su-	.	.
8dJ	.	.	.	.	.	.	.
8eL	.	.	.	4b	-bli-	2g	che
8fJ	.	.	.	.	.	.	.
2g	.	.	.	4b	.	.	.
.	.	2r	.	8aL	-gel	2dd	spie-
.	.	.	.	8gJ	.	.	.
4f	.	.	.	8aL	.	.	.
.	.	.	.	8bJ	.	.	.
2e	.	2g	che	4cc	.	2ee	-gh'ed
.	.	.	.	4b	che	.	.
=62	=62	=62	=62	=62	=62	=62	=62
1d	-ga,	4a	spie-	2dd	spie-	4ff#X	er-
.	.	4b-X	-gh'ed	.	.	2gg	.
.	.	2a	er-	2dd	-gh'ed	.	.
.	.	.	.	.	.	4ff#i	.
4r	.	4g	-ga,	4b	er-	1gg	-ga,
4c	Co-	4e	Co-	4cc	-ga,	.	.
4c	-me	4e	-me	4r	.	.	.
4c	su-	4e	su-	4g	<Co-	.	.
=63	=63	=63	=63	=63	=63	=63	=63
4B	-bli-	4d	-bli-	4g	-me	2r	.
4B	-me au-	4d	-me au-	4g	su-	.	.
8AL	-gel	8cL	-gel	4f	-bli-	2cc	Co-
8GJ	.	8BnXJ	.	.	.	.	.
8AL	.	8cL	.	4f	-me au-	.	.
8BJ	.	8dJ	.	.	.	.	.
4c	.	8eL	.	8eL	-gel	4cc	-me
.	.	8fJ	.	8dJ	.	.	.
4C	che	4g	.	8eL	.	4cc	su-
.	.	.	.	8fJ	.	.	.
4G	spie-	2d	che	2g	che	4b	-bli-
4G	-gh'ed	.	.	.	.	4b	-me au-
=64	=64	=64	=64	=64	=64	=64	=64
4.F	er-	2f	spie-	2.c	spie-	8aL	-gel
.	.	.	.	.	.	8gJ	.
.	.	.	.	.	.	8aL	.
8G	.	.	.	.	.	8bJ	.
8AL	.	4e	-gh'ed	.	.	4cc	.
8GJ	.	.	.	.	.	.	.
8FL	.	8AL	er-	2f	-gh'ed	4cc	che
8GJ	.	8BJ	.	.	.	.	.
8AL	.	8cL	.	.	.	4.cc	spie-
8BJ	.	8dJ	.	.	.	.	.
2c	.	8eL	.	8eL	er-	.	.
.	.	8fJ	.	8dJ	.	8dd	.
.	.	4g	.	4c	.	8eeL	.
.	.	.	.	.	.	8ffJ	.
4B	.	4G	-ga,	4d	.	4gg	.
=65	=65	=65	=65	=65	=65	=65	=65
2A	.	4r	.	8aL	.	4ee	.
.	.	.	.	8bJ	.	.	.
.	.	4c	ed-	2cc	.	4ff	-gh'ed
2G	-ga	2g	-er-	.	.	2dd	er-
.	.	.	.	4b	.	.	.
1c	Da	2g	-ga	2cc	-ga>	2ee	-ga
.	.	2e	Da	2g	Da	4r	.
.	.	.	.	.	.	4cc	Da
=66	=66	=66	=66	=66	=66	=66	=66
4G	vil	4d	vil	4g	vil	4b	vil
4.A	fan-	4.c	fan-	4.e	fan-	4.a	fan-
8A	-go	8c	-go	8e	-go	8a	-go
4E	pa-	4B	pa-	4e	pa-	4g	pa-
2F	-lu-	2A	-lu-	2c	-lu-	2.f	-lu-
[2C	-stre al	2G	-stre al	4c	-stre al	.	.
.	.	.	.	[4g	ciel	[4e	-stre al
=67	=67	=67	=67	=67	=67	=67	=67
2C]	.	4c	ciel,	4g]	.	4e]	.
.	.	2g	al	4cc	al	2ee	ciel
4c	ciel	.	.	2.cc	ciel	.	.
4c	le	2a	ciel	.	.	4ee	le
1d	piu-	.	.	.	.	[1dd	piu-
.	.	2g	le	4b	le	.	.
.	.	.	.	2a	piu-	.	.
.	.	4f#i	piu-	.	.	.	.
=68	=68	=68	=68	=68	=68	=68	=68
1G	-me,	2g	-me,	4b	-me,	2dd]	.
.	.	.	.	4b	al	.	.
.	.	4r	.	4.dd	ciel,	2b	-me,
.	.	4d	al	.	.	.	.
.	.	.	.	8cc	.	.	.
2r	.	4.g	ciel,	8bL	.	2dd	al
.	.	.	.	8aJ	.	.	.
.	.	.	.	4b	.	.	.
.	.	8fnXi	.	.	.	.	.
2C	al	8eL	.	4r	.	4.gg	ciel,
.	.	8dJ	.	.	.	.	.
.	.	[4e	.	[4g	al	.	.
.	.	.	.	.	.	8ff	.
=69	=69	=69	=69	=69	=69	=69	=69
4.c	ciel	4e]	.	4g]	.	8eeL	.
.	.	.	.	.	.	8ddJ	.
.	.	4g	le	4.cc	ciel	4ee	.
8B	.	.	.	.	.	.	.
8AL	.	4f	piu-	.	.	4r	.
8GJ	.	.	.	8b	.	.	.
4.A	.	4e	-me,	8aL	.	2cc	al
.	.	.	.	8gJ	.	.	.
.	.	4r	.	4.a	.	.	.
8G	.	.	.	.	.	.	.
8FL	.	4c	al	.	.	4.ff	ciel
8EJ	.	.	.	8g	.	.	.
4D	.	4d	ciel	[2f	.	.	.
.	.	.	.	.	.	8ee	.
4D	le	4A	le	.	.	8ddL	.
.	.	.	.	.	.	8ccJ	.
=70	=70	=70	=70	=70	=70	=70	=70
1G	piu-	4B	piu-	4f]	.	4dd	.
.	.	2c	.	4e	le	4g	le
.	.	.	.	2d	piu-	2g	piu-
.	.	4B	.	.	.	.	.
1Cl	-me.	1cl	-me.	1cl	-me.	1gl	-me.
==	==	==	==	==	==	==	==
*-	*-	*-	*-	*-	*-	*-	*-
!!!system-decoration: [*]
!!!RDF**kern: i = editorial accidental
!!!RDF**kern: l = terminal long
!!!ENC: Emiliano Ricciardi
!!!END: 2018/10/28
!!!EED: Ricciardi, Emiliano
!!!EEV: 2018/10/28
!!!YEC: Copyright 2018 Emiliano Ricciardi, All Rights Reserved
!!!ONB: Translated from MusicXML on 2018/10/28 and edited by Craig Stuart Sapp
!!@@BEGIN:	VERSEDATA
!!@SOLERTI:	1688
!!@CATALOGNUM:	Trm1688
!!@LAST_MODIFIED: 2020/07/12
!!@TITLE:		Padre del cielo, or ch'atra nube il calle
!!@GENRE:		sonetto
!!@MANUSRC:	Amz, Ber, Brn, J<sub>2</sub>, J<sub>4</sub>, Rv, Ts<sub>1</sub>, V<sub>13/TS1</sub>
!!@PRINTSRC:	4, 8, 9, 11, 12, 13, 20, 22, 29, 85, 87, 105, 118
!!@@BEGIN:	VERSES
!!@ABOUTIT:	[Pentimento.]
!!@ABOUTEN:	[Repentance.]
!!@EDITOR:	Maier, Bruno
!!@EDITION_TITLE: Opere
!!@EDITION_LOC:	Milan
!!@EDITION_PUB:	Rizzoli
!!@EDITION_DATE:  1963
!!@EDITION_VOL:	2
!!@EDITION_PAGE:  423-24
!!@TRANSLATOR:	Emiliano Ricciardi and Amyrose McCue Gill
!!@VERSE:
!!	Padre del cielo, or ch'atra nube il calle
!!	Destro m'asconde, e vie fallaci io stampo
!!	Per questo paludoso instabil campo
!!	De la terrena, lagrimosa valle,
!!@VERSE:
!!	Reggi i miei torti passi, ond'io non falle,
!!	E di tua santa grazia il dolce lampo
!!	In me risplenda; e di sicuro scampo
!!	Mostra il sentiero a cui voltai le spalle.
!!@VERSE:
!!	Deh! Pria che 'l verno queste chiome asperga
!!	Di bianca neve, o di sì breve giorno
!!	Copran tenebre eterne il debil lume,
!!@VERSE:
!!	Dammi ch'io faccia al tuo cammin ritorno,
!!	Quasi vestito di celesti piume,
!!	Signore, e tu mi pasci e tu m'alberga.
!!@TVERSE:
!!	Father of heaven, now that a black cloud
!!	Hides the right way from me, and I tread deceptive paths
!!	Through this swampy and unstable field
!!	Of the mundane, tearful valley,
!!@TVERSE:
!!	Sustain my meandering steps, so that I do not fall,
!!	And may the sweet gleam of your holy grace
!!	Shine within me; and show me the path to safe shelter
!!	On which I turned my back.
!!@TVERSE:
!!	Oh! Before the winter sprinkles this mane
!!	With white snow, or eternal darkness
!!	Covers the weak light of such a brief day,
!!@TVERSE:
!!	Allow me to return to your path,
!!	As though dressed in heavenly feathers,
!!	Lord, and may you shelter and nourish me.
!!@@END:		VERSES
!!@OTHER_CRIT_ED:   Torquato Tasso, <i>Rime d’amore con l'esposizione dello stesso Autore (secondo la stampa di Mantova, Osanna, 1591)</i>, ed. Vania De Maldé, vol. 4 of <i>Edizione
!!		Nazionale delle opere di Torquato Tasso</i>
!!		(Alessandria: Edizioni Dell’Orso, 2016), 213.
!!@ATTRIBUTION_ABOUT: Secure
!!		<br>
!!		Among other sources (see Literary Sources), this poem appears in the print supervised by Tasso himself <i> Delle rime del Sig. Torquato Tasso. Parte prima. Di nuovo dal medesimo in questa nuova impressione ordinate, corrette, accresciute, et date in luce. Con l'esposizione dello stesso autore</i> (Mantua: Osanna, 1591).
!!@DATING:	In or before 1581
!!		<br>
!!		The earliest datable appearance of this poem is in the print published by Manuzio in 1581 (see Literary Sources).
!!@DEDICATEE:
!!@COMMENTARY:
!!@@END:		VERSEDATA
!!@@BEGIN:	SETTING
!!@CATALOGNUM:	Trm1688c
!!@RIMETITLE:	Padre del cielo, or ch'atra nube il calle
!!@SOLERTI:	1688
!!@COMPOSER:	Dueto, Antonio
!!@PRINCEPSTITLE:	Il secondo libro de madrigali a quattro voci
!!@PRINCEPSLOC:	Venetia
!!@NORMLOC:	Venice
!!@NORMPUB:	Angelo Gardano
!!@NORMPUBSHORT:	Gardano
!!@PRINCEPSPUB:	Gardano
!!@PRINCEPSYEAR:	1586
!!@PRINCEPSRISM:	D 3655
!!@REPRINTS:	
!!@OVOICES:	4
!!@EXTANTVOICES:	4
!!@PARTBOOKS:	
!!@EXTPARTBOOKS:	
!!@OCLEFS:	G2,C2,C3,C4
!!@OMENSURATION:	C
!!@OKEYSIG:	-
!!@FINAL:	(C)(G)C
!!@TIMPEDITOR:	Ricciardi, Emiliano
!!@NOTE:		
!!@@END:		SETTING
